src/xmb/retrosystem/Tiger - Game.com-content.svg

<?xml version="1.0" encoding="UTF-8" standalone="no"?>
<svg
   xmlns:dc="http://purl.org/dc/elements/1.1/"
   xmlns:cc="http://creativecommons.org/ns#"
   xmlns:rdf="http://www.w3.org/1999/02/22-rdf-syntax-ns#"
   xmlns:svg="http://www.w3.org/2000/svg"
   xmlns="http://www.w3.org/2000/svg"
   xmlns:sodipodi="http://sodipodi.sourceforge.net/DTD/sodipodi-0.dtd"
   xmlns:inkscape="http://www.inkscape.org/namespaces/inkscape"
   viewBox="0 0 341.33334 341.33334"
   height="256"
   width="256"
   xml:space="preserve"
   id="svg2"
   version="1.1"
   sodipodi:docname="Tiger - Game.com-content.svg"
   inkscape:version="0.92.2 (5c3e80d, 2017-08-06)"><sodipodi:namedview
     pagecolor="#ffffff"
     bordercolor="#666666"
     borderopacity="1"
     objecttolerance="10"
     gridtolerance="10"
     guidetolerance="10"
     inkscape:pageopacity="0"
     inkscape:pageshadow="2"
     inkscape:window-width="1920"
     inkscape:window-height="1001"
     id="namedview28"
     showgrid="false"
     inkscape:pagecheckerboard="true"
     inkscape:zoom="2.7656249"
     inkscape:cx="68.976213"
     inkscape:cy="216.10281"
     inkscape:window-x="-9"
     inkscape:window-y="-9"
     inkscape:window-maximized="1"
     inkscape:current-layer="svg2" /><metadata
     id="metadata8"><rdf:RDF><cc:Work
         rdf:about=""><dc:format>image/svg+xml</dc:format><dc:type
           rdf:resource="http://purl.org/dc/dcmitype/StillImage" /><dc:title /></cc:Work></rdf:RDF></metadata><defs
     id="defs6"><clipPath
       id="clipPath18"
       clipPathUnits="userSpaceOnUse"><path
         id="path16"
         d="M 0,256 H 256 V 0 H 0 Z" /></clipPath><clipPath
       id="clipPath26"
       clipPathUnits="userSpaceOnUse"><path
         id="path24"
         d="M 4,252 H 252 V 4 H 4 Z" /></clipPath></defs><g
     id="g22"
     transform="matrix(1.3333333,0,0,-1.3333333,0,341.33333)" /><path
     id="path38"
     style="fill:#262626;fill-opacity:1;fill-rule:nonzero;stroke:none;stroke-width:1.33333325"
     d="m 170.66666,16.000005 c -59.656,0 -131.155997,7.896 -149.954663,10.101333 -2.686667,0.314667 -4.712,2.590667 -4.712,5.297333 v 11.268 260.074659 c 0,0.828 0.193334,1.644 0.562667,2.38533 l 8.630666,17.25867 c 0.902667,1.80667 2.749334,2.948 4.769334,2.948 H 311.37066 c 2.02,0 3.86666,-1.14133 4.76933,-2.948 l 8.63067,-17.25867 c 0.36933,-0.74133 0.56266,-1.55733 0.56266,-2.38533 v -260.074659 -11.268 c 0,-2.706666 -2.02533,-4.982666 -4.712,-5.297333 C 301.82266,23.896005 230.32133,16.000005 170.66666,16.000005"
     inkscape:connector-curvature="0" /><path
     id="path42"
     style="fill:#191919;fill-opacity:1;fill-rule:nonzero;stroke:none;stroke-width:1.33333325"
     d="M 303.99999,208 H 37.33333 c -2.945333,0 -5.333333,-2.388 -5.333333,-5.33333 V 64.000004 c 0,-2.945334 2.388,-5.333334 5.333333,-5.333334 h 266.66666 c 2.94533,0 5.33333,2.388 5.33333,5.333334 V 202.66667 c 0,2.94533 -2.388,5.33333 -5.33333,5.33333"
     inkscape:connector-curvature="0" /><path
     id="path46"
     style="fill:#191919;fill-opacity:1;fill-rule:nonzero;stroke:none;stroke-width:1.33333325"
     d="m 138.66666,266.66667 h 64 l -32,32 z"
     inkscape:connector-curvature="0" /><path
     id="path50"
     style="fill:#1abf9f;fill-opacity:1;fill-rule:nonzero;stroke:none;stroke-width:1.33333325"
     d="M 277.33333,202.66667 H 42.666669 c -2.945333,0 -5.333333,-2.388 -5.333333,-5.33333 v -128 c 0,-2.945333 2.388,-5.333333 5.333333,-5.333333 H 277.33333 Z"
     inkscape:connector-curvature="0" /><path
     id="path54"
     style="fill:#cccccc;fill-opacity:1;fill-rule:nonzero;stroke:none;stroke-width:1.33333325"
     d="M 298.66666,202.66667 H 271.99999 V 64.000007 h 26.66667 c 2.94533,0 5.33333,2.388 5.33333,5.333333 v 128 c 0,2.94533 -2.388,5.33333 -5.33333,5.33333"
     inkscape:connector-curvature="0" /><g
     id="g872"
     transform="matrix(1.9999824,0,0,1.99995,-239.92119,-344.90707)"
     style="fill:#1a1a1a"><g
       transform="matrix(1.3333333,0,0,-1.3333333,161.29535,247.12598)"
       id="g102"
       style="fill:#1a1a1a"><path
         id="path104"
         style="fill:#1a1a1a;fill-opacity:1;fill-rule:nonzero;stroke:none"
         d="M 0,0 14.062,12 V 6.757 L 20.009,12 V 3.946 c 0,0 4.088,7.676 4.336,7.676 0.248,0 9.726,-0.054 9.726,-0.054 L 32.522,8.757 H 26.885 L 26.08,7.243 h 3.159 L 27.381,4.108 H 24.965 L 24.283,2.865 h 11.398 l 0.744,1.189 h -5.699 l 4.398,7.622 h 9.911 L 43.301,8.703 h -5.637 l -0.929,-1.46 h 5.823 L 38.469,0 H 15.735 L 15.858,3.892 11.336,0 11.15,3.946 6.628,0 Z"
         inkscape:connector-curvature="0" /></g><g
       transform="matrix(1.3333333,0,0,-1.3333333,221.34254,231.7025)"
       id="g106"
       style="fill:#1a1a1a"><path
         id="path108"
         style="fill:#1a1a1a;fill-opacity:1;fill-rule:nonzero;stroke:none"
         d="M 0,0 C 0,0 -0.044,0 -0.121,0.001 L -1.215,-2.205 Z"
         inkscape:connector-curvature="0" /></g><g
       transform="matrix(1.3333333,0,0,-1.3333333,233.64934,235.52238)"
       id="g110"
       style="fill:#1a1a1a"><path
         id="path112"
         style="fill:#1a1a1a;fill-opacity:1;fill-rule:nonzero;stroke:none"
         d="m 0,0 1.735,2.973 h -9.912 l -4.398,-7.622 h 5.699 l -0.743,-1.189 h -5.493 l -1.684,-2.865 h 9.964 l 4.089,7.244 H -6.566 L -5.637,0 Z"
         inkscape:connector-curvature="0" /></g></g></svg>

<svg xmlns="http://www.w3.org/2000/svg" xml:space="preserve" width="256" height="256" viewBox="0 0 341.333 341.333"><path d="M170.667 16C111.01 16 39.51 23.896 20.712 26.101A5.33 5.33 0 0 0 16 31.4v271.34c0 .828.193 1.644.563 2.386l8.63 17.258a5.33 5.33 0 0 0 4.77 2.948H311.37a5.33 5.33 0 0 0 4.769-2.948l8.63-17.258c.37-.742.563-1.558.563-2.386V31.4a5.33 5.33 0 0 0-4.712-5.298C301.823 23.896 230.321 16 170.667 16" style="fill:#262626;fill-opacity:1;fill-rule:nonzero;stroke:none;stroke-width:1.33333325"/><path d="M304 208H37.333A5.334 5.334 0 0 1 32 202.667V64a5.334 5.334 0 0 1 5.333-5.333H304A5.334 5.334 0 0 1 309.333 64v138.667A5.334 5.334 0 0 1 304 208m-165.333 58.667h64l-32 32z" style="fill:#191919;fill-opacity:1;fill-rule:nonzero;stroke:none;stroke-width:1.33333325"/><path d="M277.333 202.667H42.667a5.334 5.334 0 0 1-5.334-5.334v-128A5.334 5.334 0 0 1 42.667 64h234.666Z" style="fill:#1abf9f;fill-opacity:1;fill-rule:nonzero;stroke:none;stroke-width:1.33333325"/><path d="M298.667 202.667H272V64h26.667A5.334 5.334 0 0 1 304 69.333v128a5.334 5.334 0 0 1-5.333 5.334" style="fill:#ccc;fill-opacity:1;fill-rule:nonzero;stroke:none;stroke-width:1.33333325"/><g style="fill:#1a1a1a"><g style="fill:#1a1a1a"><path d="m0 0 14.062 12V6.757L20.009 12V3.946s4.088 7.676 4.336 7.676 9.726-.054 9.726-.054l-1.549-2.811h-5.637l-.805-1.514h3.159l-1.858-3.135h-2.416l-.682-1.243h11.398l.744 1.189h-5.699l4.398 7.622h9.911l-1.734-2.973h-5.637l-.929-1.46h5.823L38.469 0H15.735l.123 3.892L11.336 0l-.186 3.946L6.628 0Z" style="fill:#1a1a1a;fill-opacity:1;fill-rule:nonzero;stroke:none" transform="matrix(2.66664 0 0 -2.6666 82.667 149.333)"/></g><g style="fill:#1a1a1a"><path d="m0 0-.121.001-1.094-2.206Z" style="fill:#1a1a1a;fill-opacity:1;fill-rule:nonzero;stroke:none" transform="matrix(2.66664 0 0 -2.6666 202.76 118.486)"/></g><g style="fill:#1a1a1a"><path d="m0 0 1.735 2.973h-9.912l-4.398-7.622h5.699l-.743-1.189h-5.493l-1.684-2.865h9.964l4.089 7.244h-5.823L-5.637 0Z" style="fill:#1a1a1a;fill-opacity:1;fill-rule:nonzero;stroke:none" transform="matrix(2.66664 0 0 -2.6666 227.373 126.126)"/></g></g></svg>
